X:3796
L:1/4
M:6/2
K:Ddor
 D2 | F4 D2 A2 A2 A2 | G2 E2 F2 A6 | F2 F2 D2 A4 A2 | (G2 E2) F2 C6 | A2 A2 A2 E4 F2 | G4 A2 G6 | 
 F4 D2 C6 | F2 G2 A2 G4 E2 | F4 D4 z2 |]

